docs/img/advantage/icon-gear.svg

<svg width="120" height="120" viewBox="0 0 120 120" fill="none" xmlns="http://www.w3.org/2000/svg">
<path d="M119.658 75.0439C119.814 76.4488 119.892 77.6976 119.892 78.7903C119.892 79.883 119.814 81.1317 119.658 82.5366H112.165C111.931 84.4098 111.579 86.283 111.111 88.1561L118.018 91.083C117.316 93.3464 116.379 95.6488 115.209 97.9903L108.184 95.0634C107.326 96.7025 106.272 98.3025 105.023 99.8634L110.292 105.132C108.731 107.083 106.975 108.839 105.023 110.4L99.7551 105.132C98.1941 106.381 96.5941 107.434 94.9551 108.293L97.8819 115.2C95.5404 116.449 93.238 117.424 90.9746 118.127L88.0477 111.22C86.1746 111.688 84.3014 112.039 82.4282 112.273V119.766C81.0234 119.922 79.7746 120 78.6819 120C77.5892 120 76.3404 119.922 74.9356 119.766V112.273C73.0624 112.039 71.1892 111.688 69.316 111.22L66.5063 118.127C64.1648 117.424 61.8234 116.449 59.4819 115.2L62.4087 108.293C60.7697 107.434 59.2087 106.381 57.7258 105.132L52.3404 110.4C50.3892 108.839 48.6331 107.083 47.0721 105.132L52.3404 99.8634C51.1697 98.3025 50.116 96.7025 49.1795 95.0634L42.2721 97.9903C41.0234 95.6488 40.0477 93.3464 39.3453 91.083L46.3697 88.1561C45.8234 86.283 45.4331 84.4098 45.199 82.5366H37.7063C37.5502 81.1317 37.4721 79.883 37.4721 78.7903C37.4721 77.6976 37.5502 76.4488 37.7063 75.0439H45.199C45.4331 73.1708 45.8234 71.2976 46.3697 69.4244L39.3453 66.4976C40.0477 64.2342 41.0234 61.9317 42.2721 59.5903L49.1795 62.5171C50.116 60.8781 51.1697 59.2781 52.3404 57.7171L47.0721 52.4488C48.6331 50.4976 50.3892 48.7415 52.3404 47.1805L57.7258 52.4488C59.2087 51.2 60.7697 50.1464 62.4087 49.2878L59.4819 42.2634C61.8234 41.0927 64.1648 40.1561 66.5063 39.4537L69.316 46.361C71.1892 45.8147 73.0624 45.4634 74.9356 45.3073V37.8147C76.3404 37.6586 77.5892 37.5805 78.6819 37.5805C79.7746 37.5805 81.0234 37.6586 82.4282 37.8147V45.3073C84.3014 45.4634 86.1746 45.8147 88.0477 46.361L90.9746 39.4537C93.238 40.1561 95.5404 41.0927 97.8819 42.2634L94.9551 49.2878C96.5941 50.2244 98.1941 51.2781 99.7551 52.4488L105.023 47.1805C106.975 48.7415 108.731 50.4976 110.292 52.4488L105.023 57.7171C106.272 59.2781 107.326 60.8781 108.184 62.5171L115.209 59.5903C116.379 61.9317 117.316 64.2342 118.018 66.4976L111.111 69.4244C111.579 71.2976 111.931 73.1708 112.165 75.0439H119.658ZM78.6819 60.0586C73.5307 60.0586 69.1209 61.8927 65.4526 65.561C61.7843 69.2293 59.9502 73.6391 59.9502 78.7903C59.9502 83.9415 61.7843 88.3512 65.4526 92.0195C69.1209 95.6878 73.5307 97.522 78.6819 97.522C83.8331 97.522 88.2429 95.6878 91.9112 92.0195C95.5795 88.3512 97.4136 83.9415 97.4136 78.7903C97.4136 73.6391 95.5795 69.2293 91.9112 65.561C88.2429 61.8927 83.8331 60.0586 78.6819 60.0586ZM52.3404 35.0049L50.9356 38.6342C50.7014 39.1025 50.3307 39.4537 49.8234 39.6878C49.316 39.922 48.8282 39.922 48.3599 39.6878L41.6868 36.9952C40.3599 38.8683 38.7599 40.4293 36.8868 41.6781L39.6965 48.3512C39.9307 48.8976 39.9307 49.4049 39.6965 49.8732C39.4624 50.3415 39.1112 50.6927 38.6429 50.9269L35.0136 52.4488C34.5453 52.683 34.0575 52.683 33.5502 52.4488C33.0429 52.2147 32.6721 51.8634 32.438 51.3952L29.6282 44.722C28.3795 44.9561 27.2477 45.0732 26.2331 45.0732C25.2965 45.0732 24.2038 44.9561 22.9551 44.722L20.1453 51.3952C19.9892 51.8634 19.6575 52.2147 19.1502 52.4488C18.6429 52.683 18.116 52.683 17.5697 52.4488L14.0575 50.9269C13.5112 50.7708 13.1404 50.4391 12.9453 49.9317C12.7502 49.4244 12.7307 48.8976 12.8868 48.3512L15.6965 41.7952C13.8234 40.4683 12.2234 38.8683 10.8965 36.9952L4.22335 39.8049C3.75506 39.961 3.26726 39.9415 2.75994 39.7464C2.25262 39.5513 1.88189 39.2195 1.64774 38.7512L0.242867 35.122C0.00872038 34.5756 -0.0107918 34.0488 0.18433 33.5415C0.379452 33.0342 0.750184 32.7025 1.29653 32.5464L7.85262 29.7366C7.61848 28.4878 7.5014 27.3561 7.5014 26.3415C7.5014 25.4049 7.61848 24.2732 7.85262 22.9464L1.17945 20.2537C0.711159 20.0195 0.379452 19.6683 0.18433 19.2C-0.0107918 18.7317 -0.030304 18.2244 0.125794 17.6781L1.64774 14.0488C1.88189 13.5805 2.23311 13.2293 2.7014 12.9952C3.1697 12.761 3.67701 12.761 4.22335 12.9952L10.8965 15.6878C12.1453 13.8147 13.7063 12.2537 15.5795 11.0049L12.8868 4.33174C12.6526 3.7854 12.6331 3.27808 12.8282 2.80979C13.0234 2.34149 13.3941 1.99027 13.9404 1.75613L17.5697 0.234177C18.038 3.04766e-05 18.5258 3.04766e-05 19.0331 0.234177C19.5404 0.468323 19.9112 0.819543 20.1453 1.28784L22.838 7.96101C24.0868 7.72686 25.2185 7.60979 26.2331 7.60979C27.2477 7.60979 28.3795 7.72686 29.6282 7.96101L32.3209 1.28784C32.5551 0.741494 32.9258 0.370762 33.4331 0.17564C33.9404 -0.0194817 34.4282 3.04766e-05 34.8965 0.234177L38.5258 1.75613C39.0721 1.91223 39.4429 2.24393 39.638 2.75125C39.8331 3.25857 39.8136 3.74637 39.5795 4.21466L36.8868 10.8878C38.7599 12.2147 40.3599 13.8147 41.6868 15.6878L48.2429 12.8781C48.7892 12.722 49.316 12.7415 49.8234 12.9366C50.3307 13.1317 50.6624 13.4634 50.8185 13.9317L52.3404 17.561C52.5746 18.1073 52.5941 18.6342 52.399 19.1415C52.2038 19.6488 51.8331 19.9805 51.2868 20.1366L44.6136 22.9464C44.8477 24.1952 44.9648 25.3269 44.9648 26.3415C44.9648 27.3561 44.8477 28.4878 44.6136 29.7366L51.2868 32.4293C51.8331 32.6634 52.2038 33.0147 52.399 33.483C52.5941 33.9512 52.5746 34.4586 52.3404 35.0049ZM26.2916 15.1025C23.2087 15.1025 20.5551 16.1952 18.3307 18.3805C16.1063 20.5659 14.9941 23.2195 14.9941 26.3415C14.9941 29.4634 16.1063 32.1171 18.3307 34.3025C20.5551 36.4878 23.2087 37.5805 26.2916 37.5805C29.3746 37.5805 32.0087 36.4878 34.1941 34.3025C36.3795 32.1171 37.4721 29.4634 37.4721 26.3415C37.4721 23.2195 36.3795 20.5659 34.1941 18.3805C32.0087 16.1952 29.3746 15.1025 26.2916 15.1025Z" fill="#FE9E45"/>
</svg>

<svg width="120" height="120" fill="none" xmlns="http://www.w3.org/2000/svg"><path d="M119.658 75.044c.156 1.405.234 2.654.234 3.746 0 1.093-.078 2.342-.234 3.747h-7.493a47.416 47.416 0 01-1.054 5.62l6.907 2.926c-.702 2.263-1.639 4.566-2.809 6.907l-7.025-2.927a29.852 29.852 0 01-3.161 4.8l5.269 5.269a33.611 33.611 0 01-5.269 5.268l-5.268-5.268a29.928 29.928 0 01-4.8 3.161l2.927 6.907c-2.342 1.249-4.644 2.224-6.907 2.927l-2.927-6.907a47.412 47.412 0 01-5.62 1.053v7.493c-1.405.156-2.653.234-3.746.234s-2.342-.078-3.746-.234v-7.493a47.417 47.417 0 01-5.62-1.053l-2.81 6.907c-2.341-.703-4.683-1.678-7.024-2.927l2.927-6.907a25.989 25.989 0 01-4.683-3.161L52.34 110.4a33.641 33.641 0 01-5.268-5.268l5.268-5.269a46.186 46.186 0 01-3.16-4.8l-6.908 2.927c-1.249-2.341-2.224-4.644-2.927-6.907l7.025-2.927a35.987 35.987 0 01-1.171-5.62h-7.493c-.156-1.404-.234-2.653-.234-3.746 0-1.092.078-2.341.234-3.746H45.2a35.992 35.992 0 011.17-5.62l-7.024-2.926c.703-2.264 1.678-4.566 2.927-6.908l6.907 2.927a46.207 46.207 0 013.161-4.8l-5.268-5.268a33.635 33.635 0 015.268-5.268l5.386 5.268a25.978 25.978 0 014.683-3.161l-2.927-7.025a43.947 43.947 0 017.024-2.81l2.81 6.908a28.482 28.482 0 015.62-1.054v-7.492c1.404-.156 2.653-.234 3.746-.234s2.341.078 3.746.234v7.492a28.48 28.48 0 015.62 1.054l2.927-6.907c2.263.702 4.565 1.639 6.907 2.81l-2.927 7.024a46.225 46.225 0 014.8 3.16l5.268-5.267a33.605 33.605 0 015.269 5.268l-5.269 5.268a29.86 29.86 0 013.161 4.8l7.025-2.927c1.17 2.342 2.107 4.644 2.809 6.908l-6.907 2.926c.468 1.874.82 3.747 1.054 5.62h7.493zM78.682 60.059c-5.151 0-9.561 1.834-13.23 5.502-3.668 3.668-5.502 8.078-5.502 13.23 0 5.15 1.834 9.56 5.503 13.228 3.668 3.669 8.078 5.503 13.229 5.503s9.56-1.834 13.23-5.503c3.667-3.668 5.502-8.078 5.502-13.229 0-5.15-1.835-9.56-5.503-13.229-3.668-3.668-8.078-5.502-13.23-5.502zM52.34 35.005l-1.404 3.63a2.255 2.255 0 01-1.113 1.053c-.507.234-.995.234-1.463 0l-6.673-2.693a18.252 18.252 0 01-4.8 4.683l2.81 6.673c.234.547.234 1.054 0 1.522a2.3 2.3 0 01-1.054 1.054l-3.63 1.522c-.468.234-.956.234-1.463 0a2.254 2.254 0 01-1.112-1.054l-2.81-6.673c-1.248.234-2.38.351-3.395.351-.936 0-2.03-.117-3.278-.351l-2.81 6.673c-.156.468-.488.82-.995 1.054-.507.234-1.034.234-1.58 0l-3.513-1.522c-.546-.156-.917-.488-1.112-.995a2.432 2.432 0 01-.058-1.58l2.81-6.557a20.03 20.03 0 01-4.8-4.8l-6.674 2.81c-.468.156-.956.136-1.463-.059a1.997 1.997 0 01-1.112-.995L.243 35.122c-.234-.546-.254-1.073-.059-1.58.195-.508.566-.84 1.113-.996l6.556-2.81c-.235-1.248-.352-2.38-.352-3.395 0-.936.117-2.068.352-3.395l-6.674-2.692A2.016 2.016 0 01.184 19.2c-.195-.468-.214-.976-.058-1.522l1.522-3.63a2.3 2.3 0 011.053-1.053c.469-.234.976-.234 1.522 0l6.673 2.693a16.723 16.723 0 014.683-4.683l-2.692-6.673c-.234-.547-.254-1.054-.059-1.522.195-.469.566-.82 1.112-1.054L17.57.234c.468-.234.956-.234 1.463 0 .507.234.878.586 1.112 1.054l2.693 6.673c1.249-.234 2.38-.351 3.395-.351 1.015 0 2.146.117 3.395.351l2.693-6.673c.234-.547.605-.917 1.112-1.112.507-.195.995-.176 1.464.058l3.629 1.522c.546.156.917.488 1.112.995.195.508.176.995-.058 1.464l-2.693 6.673a20.03 20.03 0 014.8 4.8l6.556-2.81a2.432 2.432 0 011.58.059c.508.195.84.526.995.995l1.522 3.629c.235.546.254 1.073.059 1.58-.195.508-.566.84-1.112.996l-6.673 2.81c.234 1.248.35 2.38.35 3.395 0 1.014-.116 2.146-.35 3.395l6.673 2.692c.546.234.917.586 1.112 1.054.195.468.176.976-.059 1.522zM26.292 15.102c-3.083 0-5.737 1.093-7.961 3.279-2.225 2.185-3.337 4.838-3.337 7.96s1.112 5.776 3.337 7.962c2.224 2.185 4.878 3.278 7.96 3.278 3.084 0 5.718-1.093 7.903-3.279 2.185-2.185 3.278-4.839 3.278-7.96 0-3.122-1.093-5.776-3.278-7.961-2.185-2.186-4.82-3.279-7.902-3.279z" fill="#FE9E45"/></svg>
